modules/open-iconic/icons/document.svg

<svg xmlns="http://www.w3.org/2000/svg" width="8" height="8" viewBox="0 0 8 8">
  <path d="M0 0v8h7v-4h-4v-4h-3zm4 0v3h3l-3-3zm-3 2h1v1h-1v-1zm0 2h1v1h-1v-1zm0 2h4v1h-4v-1z" />
</svg>

<svg xmlns="http://www.w3.org/2000/svg" width="8" height="8"><path d="M0 0v8h7V4H3V0H0zm4 0v3h3L4 0zM1 2h1v1H1V2zm0 2h1v1H1V4zm0 2h4v1H1V6z"/></svg>
